frontend/public/cursors/hover.svg

<?xml version="1.0" encoding="UTF-8" standalone="no"?><!DOCTYPE svg PUBLIC "-//W3C//DTD SVG 1.1//EN" "http://www.w3.org/Graphics/SVG/1.1/DTD/svg11.dtd"><svg width="100%" height="100%" viewBox="0 0 32 32" version="1.1" xmlns="http://www.w3.org/2000/svg" xmlns:xlink="http://www.w3.org/1999/xlink" xml:space="preserve" xmlns:serif="http://www.serif.com/" style="fill-rule:evenodd;clip-rule:evenodd;stroke-linejoin:round;stroke-miterlimit:2;"><path d="M2.23,2.225l27.379,13.304l-11.902,1.16l-1.176,12.725l-14.301,-27.189Z" style="fill:url(#_Linear1);"/><path d="M18.682,17.665l-0.142,11.078l-0.131,0.714l-0.345,0.616l-0.525,0.474l-0.668,0.284l-0.724,0.05l-0.682,-0.184l-0.588,-0.392l-0.44,-0.577l-13.977,-26.572c-0.402,-0.765 -0.268,-1.702 0.334,-2.322c0.601,-0.621 1.533,-0.785 2.31,-0.408l26.524,12.889l0.61,0.437l0.422,0.598l0.205,0.701l-0.038,0.75l-0.285,0.695l-0.485,0.548l-0.635,0.361l-0.739,0.136l-10.001,0.124Zm-16.452,-15.44l13.977,26.572c0.037,0.072 0.119,0.108 0.197,0.09c0.079,-0.019 0.135,-0.089 0.136,-0.17l0.156,-12.157c0.006,-0.485 0.397,-0.876 0.882,-0.882l11.08,-0.137c0.105,-0.001 0.194,-0.074 0.217,-0.176c0.023,-0.102 -0.027,-0.206 -0.121,-0.251l-26.524,-12.889Z"/><defs><linearGradient id="_Linear1" x1="0" y1="0" x2="1" y2="0" gradientUnits="userSpaceOnUse" gradientTransform="matrix(-6.338951,8.981117,-8.981117,-6.338951,17.65309,10.481586)"><stop offset="0" style="stop-color:#00ce00;stop-opacity:1"/><stop offset="1" style="stop-color:#007900;stop-opacity:1"/></linearGradient></defs></svg>

<?xml version="1.0" encoding="UTF-8" standalone="no"?>
<!DOCTYPE svg PUBLIC "-//W3C//DTD SVG 1.1//EN" "http://www.w3.org/Graphics/SVG/1.1/DTD/svg11.dtd">
<svg width="32" height="32" viewBox="0 0 32 32" version="1.1" xmlns="http://www.w3.org/2000/svg" xmlns:xlink="http://www.w3.org/1999/xlink" xml:space="preserve" xmlns:serif="http://www.serif.com/" style="fill-rule:evenodd;clip-rule:evenodd;stroke-linejoin:round;stroke-miterlimit:2;">
    <path d="M2.23,2.225L29.609,15.529L16.707,15.689L16.531,29.414L2.23,2.225Z" style="fill:url(#_Linear1);"/>
    <path d="M18.682,17.665L18.54,28.743L18.409,29.457L18.064,30.073L17.539,30.547L16.871,30.831L16.147,30.881L15.465,30.697L14.877,30.305L14.437,29.728L0.46,3.156C0.058,2.391 0.192,1.454 0.794,0.834C1.395,0.213 2.327,0.049 3.104,0.426L29.628,13.315L30.238,13.752L30.66,14.35L30.865,15.051L30.827,15.801L30.542,16.496L30.057,17.044L29.422,17.405L28.683,17.541L18.682,17.665ZM2.23,2.225L16.207,28.797C16.244,28.869 16.326,28.905 16.404,28.887C16.483,28.868 16.539,28.798 16.54,28.717L16.696,16.56C16.702,16.075 17.093,15.684 17.578,15.678L28.658,15.541C28.763,15.54 28.852,15.467 28.875,15.365C28.898,15.263 28.848,15.159 28.754,15.114L2.23,2.225Z"/>
    <defs>
        <linearGradient id="_Linear1" x1="0" y1="0" x2="1" y2="0" gradientUnits="userSpaceOnUse" gradientTransform="matrix(-6.338951,8.981117,-8.981117,-6.338951,17.65309,10.481586)"><stop offset="0" style="stop-color:rgb(0,206,0);stop-opacity:1"/><stop offset="1" style="stop-color:rgb(0,121,0);stop-opacity:1"/></linearGradient>
    </defs>
</svg>
